Yaru++-Dark/apps/16/marktext.svg

<svg height="16" viewBox="0 0 16 16" width="16" xmlns="http://www.w3.org/2000/svg"><path d="m8 5.949-8-4.619v2.921.215 6.361l2.667 1.601v-3.65l-.889-.503v-2.783l6.214 3.588.008-.005.008.005 6.222-3.592 1.77-1.022v-3.136zm0 5.8 4.444-2.566v2.92l-1.914 1.106-.413.238-2.117 1.223-2.53-1.461h.001l-1.915-1.106v-2.92zm8-7.28-1.781 1.031.003 2.775-.889.503v3.65l2.667-1.601z" fill="#f2f2f7" fill-rule="evenodd"/></svg>

<svg xmlns="http://www.w3.org/2000/svg" style="isolation:isolate" width="16" height="16" viewBox="0 0 16 16">
 <defs>
  <style id="current-color-scheme" type="text/css">
   .ColorScheme-Text { color: #f2f2f7; } .ColorScheme-Highlight { color: #5294e2; }
  </style>
 </defs>
  <path fill="currentColor" class="ColorScheme-Text" fill-rule="evenodd" d="M 8 5.949 L 0 1.33 L 0 4.251 L 0 4.466 L 0 10.827 L 2.667 12.428 L 2.667 8.778 L 1.778 8.275 L 1.778 5.492 L 1.778 5.492 L 1.778 5.492 L 1.778 5.492 L 7.992 9.08 L 8 9.075 L 8.008 9.08 L 14.23 5.488 L 16 4.466 L 16 1.33 L 8 5.949 Z M 8 11.749 L 12.444 9.183 L 12.444 9.183 L 12.444 12.103 L 10.53 13.209 L 10.53 13.209 L 10.117 13.447 L 8 14.67 L 5.47 13.209 L 5.471 13.209 L 3.556 12.103 L 3.556 9.183 L 8 11.749 L 8 11.749 L 8 11.749 Z M 16 4.469 L 14.219 5.5 L 14.222 8.275 L 13.333 8.778 L 13.333 12.428 L 16 10.827 L 16 4.469 L 16 4.469 Z"/>
</svg>
